!!!COM: Beethoven
!!!OTL: 24 Variationen uber Venni Amore von V. Righini
!!!Variation: Variation 6 b2
**function	**harm	**kern	**kern
*	*	*clefG2	*clefG2
*	*	*k[f#c#]	*k[f#c#]
*M2/4	*M2/4	*M2/4	*M2/4
*D:	*D:	*D:	*D:
=113	=113	=113	=113
8D	8V	8A' 8e'	2r
4D	4I	(4d 4f#	.
8D	8V7c	8e') 8g'	.
=114	=114	=114	=114
2D	2I	4f#' 4a'	(8ff#L 8aa
.	.	.	8cc#'J) 8ee'
.	.	4r	(8cc#L 8ee
.	.	.	8dd'J) 8ff#'
=115	=115	=115	=115
8D	8V7c	8e' 8g'	4a 4ee
4D	4I	(4d 4f#	.
.	.	.	4r
8D	8V	8A') 8e'	.
=116	=116	=116	=116
8D	8Ib	4F#' 4d'	(8f#L 8dd
4D	4Vc	.	8e'J) 8a'
.	.	4r	(8eL 8a
8D	8I	.	8d'J) 8f#'
*	*	*clefF4	*
=117	=117	=117	=117
8D	8V	8AA' 8E'	4A 4e
4D	4I	(4D 4F#	.
.	.	.	4r
8D	8V7c	8E') 8G'	.
=118	=118	=118	=118
2D	2Ib	4F#' 4A'	8dd' 8ff#'
.	.	.	(4ee 4gg
.	.	4r	.
.	.	.	8ee#') 8gg#'
=119	=119	=119	=119
*	*	*	*^
8D	8Ib	4r	8ff#'	8aa'
8D	8ii	.	4.ee 4.gg	(4bb
8D	4V7	[4AA	.	.
.	.	.	.	8ccc#')
=120	=120	=120	=120	=120
2T	2I	8AAL]	4dd 4ff#	4ddd
*	*	*	*v	*v
.	.	8DDJ	.
.	.	4r	4r
*-	*-	*-	*-
